src/assets/outline/PenTool2.svg

<svg width="24" height="24" viewBox="0 0 24 24"  xmlns="http://www.w3.org/2000/svg">
<path d="M13.2698 23.25H10.7498C10.0498 23.25 9.41979 22.9499 8.99979 22.4399C8.62979 21.9799 8.48978 21.39 8.61978 20.83L9.02979 19.02C9.10979 18.68 9.40978 18.4399 9.75978 18.4399H14.2598C14.6098 18.4399 14.9098 18.68 14.9898 19.02L15.3998 20.83C15.5298 21.43 15.4098 22.01 15.0398 22.47C14.6298 22.96 13.9898 23.25 13.2698 23.25ZM10.3598 19.92L10.0798 21.15C10.0498 21.3 10.1098 21.42 10.1698 21.49C10.2998 21.65 10.5098 21.74 10.7498 21.74H13.2698C13.5298 21.74 13.7498 21.66 13.8698 21.51C13.9498 21.41 13.9698 21.29 13.9398 21.14L13.6598 19.91H10.3598V19.92Z" />
<path d="M14.26 19.9198C14.05 19.9198 13.85 19.8398 13.7 19.6698C13.43 19.3598 13.45 18.8897 13.76 18.6097L15.49 17.0697C16.18 16.4597 16.15 16.3098 15.64 15.6698L12.59 11.7997C12.42 11.5897 12.22 11.4697 12.01 11.4697C11.8 11.4697 11.6 11.5897 11.43 11.7997L8.38003 15.6698C7.84003 16.3598 7.85002 16.5098 8.51002 17.0498L10.26 18.6097C10.57 18.8797 10.6 19.3598 10.32 19.6698C10.04 19.9798 9.57002 20.0097 9.26002 19.7297L7.53002 18.1897C6.27002 17.1597 6.16002 16.0597 7.20002 14.7397L10.25 10.8698C10.7 10.2998 11.34 9.96973 12.01 9.96973C12.68 9.96973 13.32 10.2998 13.77 10.8698L16.82 14.7397C17.85 16.0397 17.75 17.0797 16.49 18.1897L14.76 19.7297C14.61 19.8597 14.43 19.9198 14.26 19.9198Z" />
<path d="M12.0098 14.4001C11.5998 14.4001 11.2598 14.0601 11.2598 13.6501V11.1201C11.2598 10.7101 11.5998 10.3701 12.0098 10.3701C12.4198 10.3701 12.7598 10.7101 12.7598 11.1201V13.6501C12.7598 14.0701 12.4198 14.4001 12.0098 14.4001Z" />
<path d="M12.52 5.75H11.52C10.56 5.75 9.77002 4.96 9.77002 4V3C9.77002 2.04 10.56 1.25 11.52 1.25H12.52C13.48 1.25 14.27 2.04 14.27 3V4C14.27 4.96 13.49 5.75 12.52 5.75ZM11.52 2.75C11.38 2.75 11.27 2.86 11.27 3V4C11.27 4.14 11.38 4.25 11.52 4.25H12.52C12.66 4.25 12.77 4.14 12.77 4V3C12.77 2.86 12.66 2.75 12.52 2.75H11.52Z" />
<path d="M4.27002 14.92H3.27002C2.31002 14.92 1.52002 14.13 1.52002 13.17V12.17C1.52002 11.21 2.31002 10.4199 3.27002 10.4199H4.27002C5.23002 10.4199 6.02002 11.21 6.02002 12.17V13.17C6.02002 14.13 5.23002 14.92 4.27002 14.92ZM3.27002 11.9199C3.13002 11.9199 3.02002 12.03 3.02002 12.17V13.17C3.02002 13.31 3.13002 13.42 3.27002 13.42H4.27002C4.41002 13.42 4.52002 13.31 4.52002 13.17V12.17C4.52002 12.03 4.41002 11.9199 4.27002 11.9199H3.27002Z" />
<path d="M20.73 14.92H19.73C18.77 14.92 17.98 14.13 17.98 13.17V12.17C17.98 11.21 18.77 10.4199 19.73 10.4199H20.73C21.69 10.4199 22.48 11.21 22.48 12.17V13.17C22.48 14.13 21.7 14.92 20.73 14.92ZM19.73 11.9199C19.59 11.9199 19.48 12.03 19.48 12.17V13.17C19.48 13.31 19.59 13.42 19.73 13.42H20.73C20.87 13.42 20.98 13.31 20.98 13.17V12.17C20.98 12.03 20.87 11.9199 20.73 11.9199H19.73Z" />
<path d="M3.75 11.9203C3.34 11.9203 3 11.5803 3 11.1703C3 6.90031 6.2 3.31033 10.44 2.81033C10.85 2.77033 11.22 3.0603 11.27 3.4703C11.32 3.8803 11.02 4.25032 10.61 4.30032C7.13 4.71032 4.5 7.66031 4.5 11.1703C4.5 11.5803 4.16 11.9203 3.75 11.9203Z" />
<path d="M20.25 11.9199C19.84 11.9199 19.5 11.5799 19.5 11.1699C19.5 7.67988 16.89 4.7299 13.43 4.3099C13.02 4.2599 12.73 3.88988 12.78 3.47988C12.83 3.06988 13.2 2.76992 13.62 2.82992C17.83 3.33992 21.01 6.92989 21.01 11.1799C21 11.5799 20.67 11.9199 20.25 11.9199Z" />
</svg>

<?xml version="1.0" encoding="UTF-8"?>
<svg width="24" height="24" viewBox="0 0 24 24" xmlns="http://www.w3.org/2000/svg">
 <path d="m13.27 23.25h-2.52c-0.7 0-1.33-0.3001-1.75-0.8101-0.37-0.46-0.51001-1.0499-0.38001-1.6099l0.41001-1.81c0.08-0.34 0.37999-0.5801 0.72999-0.5801h4.5c0.35 0 0.65 0.2401 0.73 0.5801l0.41 1.81c0.13 0.6 0.01 1.18-0.36 1.64-0.41 0.49-1.05 0.78-1.77 0.78zm-2.91-3.33-0.28 1.23c-0.03 0.15 0.03 0.27 0.09 0.34 0.13 0.16 0.34 0.25 0.58 0.25h2.52c0.26 0 0.48-0.08 0.6-0.23 0.08-0.1 0.1-0.22 0.07-0.37l-0.28-1.23h-3.3v0.01z"/>
 <path d="m14.26 19.92c-0.21 0-0.41-0.08-0.56-0.25-0.27-0.31-0.25-0.7801 0.06-1.0601l1.73-1.54c0.69-0.61 0.66-0.7599 0.15-1.3999l-3.05-3.8701c-0.17-0.21-0.37-0.33-0.58-0.33s-0.41 0.12-0.58 0.33l-3.05 3.8701c-0.54 0.69-0.53001 0.84 0.12999 1.38l1.75 1.5599c0.31 0.27 0.34 0.7501 0.06 1.0601s-0.74998 0.3399-1.06 0.0599l-1.73-1.54c-1.26-1.03-1.37-2.13-0.33-3.45l3.05-3.8699c0.45-0.57 1.09-0.90007 1.76-0.90007s1.31 0.33007 1.76 0.90007l3.05 3.8699c1.03 1.3 0.93 2.34-0.33 3.45l-1.73 1.54c-0.15 0.13-0.33 0.1901-0.5 0.1901z"/>
 <path d="m12.01 14.4c-0.41 0-0.75-0.34-0.75-0.75v-2.53c0-0.41 0.34-0.75 0.75-0.75s0.75 0.34 0.75 0.75v2.53c0 0.42-0.34 0.75-0.75 0.75z"/>
 <path d="m12.52 5.75h-1c-0.96 0-1.75-0.79-1.75-1.75v-1c0-0.96 0.78998-1.75 1.75-1.75h1c0.96 0 1.75 0.79 1.75 1.75v1c0 0.96-0.78 1.75-1.75 1.75zm-1-3c-0.14 0-0.25 0.11-0.25 0.25v1c0 0.14 0.11 0.25 0.25 0.25h1c0.14 0 0.25-0.11 0.25-0.25v-1c0-0.14-0.11-0.25-0.25-0.25h-1z"/>
 <path d="m4.27 14.92h-1c-0.96 0-1.75-0.79-1.75-1.75v-1c0-0.96 0.79-1.7501 1.75-1.7501h1c0.96 0 1.75 0.7901 1.75 1.7501v1c0 0.96-0.79 1.75-1.75 1.75zm-1-3.0001c-0.14 0-0.25 0.1101-0.25 0.2501v1c0 0.14 0.11 0.25 0.25 0.25h1c0.14 0 0.25-0.11 0.25-0.25v-1c0-0.14-0.11-0.2501-0.25-0.2501h-1z"/>
 <path d="m20.73 14.92h-1c-0.96 0-1.75-0.79-1.75-1.75v-1c0-0.96 0.79-1.7501 1.75-1.7501h1c0.96 0 1.75 0.7901 1.75 1.7501v1c0 0.96-0.78 1.75-1.75 1.75zm-1-3.0001c-0.14 0-0.25 0.1101-0.25 0.2501v1c0 0.14 0.11 0.25 0.25 0.25h1c0.14 0 0.25-0.11 0.25-0.25v-1c0-0.14-0.11-0.2501-0.25-0.2501h-1z"/>
 <path d="m3.75 11.92c-0.41 0-0.75-0.34-0.75-0.75 0-4.27 3.2-7.86 7.44-8.36 0.41-0.04 0.78 0.24997 0.83 0.65997s-0.25 0.78002-0.66 0.83002c-3.48 0.41-6.11 3.36-6.11 6.87 0 0.41-0.34 0.75-0.75 0.75z"/>
 <path d="m20.25 11.92c-0.41 0-0.75-0.34-0.75-0.75 0-3.49-2.61-6.44-6.07-6.86-0.41-0.05-0.7-0.42002-0.65-0.83002s0.42-0.70996 0.84-0.64996c4.21 0.51 7.39 4.1 7.39 8.35-0.01 0.4-0.34 0.74-0.76 0.74z"/>
</svg>
